X:100
T:Reel 100
M:4/4
K:Gmaj
L:1/8
dc|B>G (3GGG GAGE|DEGB cBAG|c>A (3AAA ABcd|edef gedc|B>G (3GFG EGDG|A>G (3GFG Bdgb|c'bc'a fgag|fdcA G2|Bc|dggf g2fg|afde fedc|dcBd GdBG|ABAG FGAc|dggf g2bg|abag fgef|g2fg a2d'c'|bd'c'f g2|
